X:1
T:Fröhlich wollen wir
T:Balthasar Resinarius
T:Source : DDT 34---Leipzich---Breitkopf & Härtel---J.Wolf---1908. First print : Newe Deudsche Geistliche Gesenge---Wittemberg---G.Rhau---1544. Editor : André Vierendeels (21/07/17).
T:Notes : Original clefs : C1, C3, C4, F4 Original note values have been halved Editorial accidentals above the staff
T:Fröhlich wollen wir
T:©
T:©
C:Balthasar Resinarius
Z:©
%%score [ 1 [ 2 3 ] 4 ]
L:1/8
Q:1/4=120
M:2/2
K:F
V:1 treble nm="Alto" snm="A"
V:2 treble-8 nm="Tenor 1" snm="T 1"
V:3 treble-8 nm="Tenor 2" snm="T 2"
V:4 bass nm="Bass" snm="B"
V:1
 z4 F2 F2 | G4 F2 F2- | FD E2 F4- | F4 B4 | G2 c3 B A2- | AG F3 EED |1 F8 :|2 F4 z2 F2 || %8
w: Fröh- lich|wol- len wir|_ _ _ _|* Hal-|le- lu- * ia|_ _ sin- * * *|gen.|* Sein|
w: Aus hit-|zi- ger Gier|_ _ _ _|* un-|sers Her- zen sprin-|||gen. *|
 B4 G2 c2- | cBAG F2 G2- | G2 G2 c4 | A4 B3 A | G2 FE FEDC | B,2 B,4 A,2 | B,4 z4 | F2 F2 G2 G2 | %16
w: Gnad ver- til-||* get hat|all un- *||ser Sün- *|den,|in ihm ha- ben|
w: ||||||||
 A2 A2 G4 | z2 F2 F4 | B3 A GF G2 | GF F4 E2 | F8 |] %21
w: wir rei- che,|[rei- che]|Schät- * * * *|ze _ fun- *|den.|
w: |||||
V:2
 c2 c2 d4 | c2 c3 A B2 | c8 | f4 d2 g2- | gf e3 d c2- | cBBA c4 |1 z8 :|2 z2 c2 f4 || d2 g2 gfed | %9
w: Fröh- lich wol-|len wir _ _|_|Hal- le- lu-|* * ia _ sin-|* * * * gen.||Sein Gnad|ver- * til- * * *|
w: Aus hit- zi-|ger Gier _ _|_|un- sers Her-|* * * zen sprin-|* * * * gen.||||
 c2 d4 d2 | g4 e4 | f3 e d2 cB | cBAG F2 F2- | F2 E2 F4 | z4 c2 c2 | d2 d2 e2 e2 | d4 z2 c2 | %17
w: * * get|hat all|un- * * * *|* * * * ser Sün-|* * den,|in ihm|ha- ben wir rei-|che, rei-|
w: ||||||||
 c4 f3 e | dc d3 c c2- | c2 B2 c4- | c8 |] %21
w: che Schät- *|* * * ze fun-|* * den.|_|
w: ||||
V:3
 z8 | z4 F2 F2 | G4 F4 | B4 G2 G2 | c4 A4- | F4 G4 |1 F8 :|2 F4 z4 || z8 | F4 B4 | G2 c3 BAG | %11
w: |Fröh- lich|wol- len|wir Hal- le-|lu- ia|sin- *|gen.|||Sein Gnad|ver- til- * * *|
w: |Aus hit-|zi- ger|Gier un- sers|Her- *|zen sprin-||gen.||||
 F4 G4 | C4 F3 E | DC B,2 C4 | B,4 z4 | z8 | F2 F2 G2 G2 | A4 B4 | G4 c3 B | AG F2 G4 | F8 |] %21
w: get hat|all un- *|* * ser Sün-|den,||in ihm ha- ben|wir rei-|che Schät- *|* * ze fun-|den.|
w: ||||||||||
V:4
 z8 | C,2 C,2 D,4 | C,4 F,4 | D,2 D,2 G,4 | E,4 C,4 | D,4 C,4 |1 z8 :|2 z8 || z4 C,4 | %9
w: |Fröh- lich wol-|len wir|Hal- le- lu-|ia sin-|* gen.|||Sein|
w: |Aus hit- zi-|ger Gier|un- sers Her-|* zen|sprin- gen.||||
 F,4 D,2 G,2- | G,F,E,D, C,4 | D,4 G,,4 | C,3 B,, A,,G,, F,,2 | G,,4 F,,4 | z8 | z4 C,2 C,2 | %16
w: Gnad ver- til-|* * * * get|hat all|un- * * * ser|Sün- den,||in ihm|
w: |||||||
 D,2 D,2 E,4 | F,4 D,4 | G,3 F, E,D, C,2 | D,4 C,4 | F,,8 |] %21
w: ha- ben wir|rei- che|Schät- * * * ze|fun- *|den.|
w: |||||

